home-lock-open.svg

<svg fill="currentColor" viewBox="0 0 24 24"><path d="M12 3 2 12h3v8h14v-8h3zm0 5a3 3 0 0 1 3 3h-2a1 1 0 0 0-1-1 1 1 0 0 0-1 1v2h5v4H8v-4h1v-2a3 3 0 0 1 3-3"/></svg>

<svg  viewBox="0 0 24 24" fill="currentColor"><path  d="M12,3L2,12H5V20H19V12H22L12,3M12,8A3,3 0 0,1 15,11H13A1,1 0 0,0 12,10A1,1 0 0,0 11,11V13H16V17H8V13H9V11A3,3 0 0,1 12,8Z"/></svg>
